X:1
T: Lady Betty Cochran's Reel
C:Robert Mackintosh
R:Reel
Q: 232
K:F
M:4/4
L:1/8
|:A|CF Ac f2 cA|dB cF EG GB|AF Af d2 cF|EG dc1/2B1/2 AF FA|
CF Ac f2 cA|dB cF EG GB|AF Af d2 cF|EG dc1/2B1/2 AF Fe|
f1/2e1/2f1/2g1/2 fc af gc|B1/2d1/2f Ac Bd gb|fa gc df eA|BG cB AF Fe|
f1/2e1/2f1/2g1/2 fc ae fc|dB b1/2a1/2g1/2f1/2 eg ce|dB db cA ca|BG cB AF F:|
